images/lr-branches-1.svg

<?xml version="1.0" encoding="UTF-8"?>
<svg id="svg7334" version="1.1" viewBox="0 0 805.2 111" xmlns="http://www.w3.org/2000/svg" xmlns:cc="http://creativecommons.org/ns#" xmlns:dc="http://purl.org/dc/elements/1.1/" xmlns:rdf="http://www.w3.org/1999/02/22-rdf-syntax-ns#">
 <metadata id="metadata7340">
  <rdf:RDF>
   <cc:Work rdf:about="">
    <dc:format>image/svg+xml</dc:format>
    <dc:type rdf:resource="http://purl.org/dc/dcmitype/StillImage"/>
    <dc:title>images/lr-branches-1</dc:title>
   </cc:Work>
  </rdf:RDF>
 </metadata>
 <!-- Generator: Sketch 56.3 (81716) - https://sketch.com -->
 <title id="title7239">images/lr-branches-1</title>
 <desc id="desc7241">Created with Sketch.</desc>
 <g id="g7506" transform="translate(6.2,4)">
  <g id="brown" transform="translate(-2,70)" style="fill-rule:evenodd;fill:none">
   <rect id="Rectangle-1" width="89" height="33" rx="16.5" ry="16.5" style="fill-rule:evenodd;fill:#efefe7"/>
   <text id="C6" font-size="12px" font-weight="700" style="fill:#979797;font-family:'Source Code Pro';font-size:12px;font-weight:700;text-anchor:middle"><tspan id="tspan7244" x="44.5" y="21" style="fill:gray">C1</tspan></text>
  </g>
  <path id="Line" d="m96 86h26v1h-26v4l-9-4.5 9-4.5z" style="fill:#8f8981"/>
  <g id="g7255" transform="translate(116,70)" style="fill-rule:evenodd;fill:none">
   <rect id="rect7249" width="89" height="33" rx="16.5" ry="16.5" style="fill-rule:evenodd;fill:#efefe7"/>
   <text id="text7253" font-size="12px" font-weight="700" style="fill:#979797;font-family:'Source Code Pro';font-size:12px;font-weight:700;text-anchor:middle"><tspan id="tspan7251" x="44.5" y="21" style="fill:gray">C2</tspan></text>
  </g>
  <path id="path7257" d="m214 86h26v1h-26v4l-9-4.5 9-4.5z" style="fill:#8f8981"/>
  <g id="g7265" transform="translate(234,70)" style="fill-rule:evenodd;fill:none">
   <rect id="rect7259" width="89" height="33" rx="16.5" ry="16.5" style="fill-rule:evenodd;fill:#efefe7"/>
   <text id="text7263" font-size="12px" font-weight="700" style="fill:#979797;font-family:'Source Code Pro';font-size:12px;font-weight:700;text-anchor:middle"><tspan id="tspan7261" x="44.5" y="21" style="fill:gray">C3</tspan></text>
  </g>
  <path id="path7267" d="m332 86h26v1h-26v4l-9-4.5 9-4.5z" style="fill:#8f8981"/>
  <g id="g7275" transform="translate(352,70)" style="fill-rule:evenodd;fill:none">
   <rect id="rect7269" width="89" height="33" rx="16.5" ry="16.5" style="fill-rule:evenodd;fill:#efefe7"/>
   <text id="text7273" font-size="12px" font-weight="700" style="fill:#979797;font-family:'Source Code Pro';font-size:12px;font-weight:700;text-anchor:middle"><tspan id="tspan7271" x="44.5" y="21" style="fill:gray">C4</tspan></text>
  </g>
  <path id="path7277" d="m450 86h26v1h-26v4l-9-4.5 9-4.5z" style="fill:#8f8981"/>
  <g id="g7285" transform="translate(470,70)" style="fill-rule:evenodd;fill:none">
   <rect id="rect7279" width="89" height="33" rx="16.5" ry="16.5" style="fill-rule:evenodd;fill:#efefe7"/>
   <text id="text7283" font-size="12px" font-weight="700" style="fill:#979797;font-family:'Source Code Pro';font-size:12px;font-weight:700;text-anchor:middle"><tspan id="tspan7281" x="44.5" y="21" style="fill:gray">C5</tspan></text>
  </g>
  <path id="path7287" d="m568 86h26v1h-26v4l-9-4.5 9-4.5z" style="fill:#8f8981"/>
  <g id="g7295" transform="translate(588,70)" style="fill-rule:evenodd;fill:none">
   <rect id="rect7289" width="89" height="33" rx="16.5" ry="16.5" style="fill-rule:evenodd;fill:#efefe7"/>
   <text id="text7293" font-size="12px" font-weight="700" style="fill:#979797;font-family:'Source Code Pro';font-size:12px;font-weight:700;text-anchor:middle"><tspan id="tspan7291" x="44.5" y="21" style="fill:gray">C6</tspan></text>
  </g>
  <path id="path7297" d="m686 86h26v1h-26v4l-9-4.5 9-4.5z" style="fill:#8f8981"/>
  <g id="g7305" transform="translate(706,70)" style="fill-rule:evenodd;fill:none">
   <rect id="rect7299" width="89" height="33" rx="16.5" ry="16.5" style="fill-rule:evenodd;fill:#efefe7"/>
   <text id="text7303" font-size="12px" font-weight="700" style="fill:#979797;font-family:'Source Code Pro';font-size:12px;font-weight:700;text-anchor:middle"><tspan id="tspan7301" x="44.5" y="21" style="fill:gray">C7</tspan></text>
  </g>
  <g id="g7418">
   <path id="Line-2" transform="translate(-1.2)" d="m43 61v-38h1v38h4l-4.5 9-4.5-9z" style="fill:#8f8981"/>
   <g id="g7411">
    <rect id="Rectangle-2" transform="matrix(.83962 0 0 1 -2.2 0)" width="106" height="33" style="fill-rule:evenodd;fill:#f44d27"/>
    <text id="master" transform="translate(-10.6 .316)" font-size="12px" font-weight="700" style="fill-rule:evenodd;fill:#979797;font-family:'Source Code Pro';font-size:12px;font-weight:700;text-anchor:middle"><tspan id="tspan7309" x="53" y="20" style="fill:#f0f0f0">master</tspan></text>
   </g>
  </g>
  <g id="g7435">
   <path id="path7313" transform="translate(-2.1)" d="m516 61v-38h1v38h4l-4.5 9-4.5-9z" style="fill:#8f8981"/>
   <g id="g7428">
    <rect id="rect7315" transform="matrix(.83962 0 0 1 469.9 0)" width="106" height="33" style="fill-rule:evenodd;fill:#f44d27"/>
    <text id="text7319" transform="translate(461.4 -.398)" font-size="12px" font-weight="700" style="fill-rule:evenodd;fill:#979797;font-family:'Source Code Pro';font-size:12px;font-weight:700;text-anchor:middle"><tspan id="tspan7317" x="53" y="20" style="fill:#f0f0f0">develop</tspan></text>
   </g>
  </g>
  <g id="g7452">
   <path id="path7323" transform="translate(-1.1)" d="m751 61v-38h1v38h4l-4.5 9-4.5-9z" style="fill:#8f8981"/>
   <g id="g7445">
    <rect id="rect7325" transform="matrix(.83962 0 0 1 705.9 0)" width="106" height="33" style="fill-rule:evenodd;fill:#f44d27"/>
    <text id="text7329" transform="translate(697.42 -.074)" font-size="12px" font-weight="700" style="fill-rule:evenodd;fill:#979797;font-family:'Source Code Pro';font-size:12px;font-weight:700;text-anchor:middle"><tspan id="tspan7327" x="53" y="20" style="fill:#f0f0f0">topic</tspan></text>
   </g>
  </g>
 </g>
</svg>

<?xml version="1.0"?>
<svg xmlns="http://www.w3.org/2000/svg" xmlns:xlink="http://www.w3.org/1999/xlink" width="815px" height="103px" viewBox="0 0 815 103" version="1.1">
    <!-- Generator: Sketch 56.3 (81716) - https://sketch.com -->
    <title>images/lr-branches-1</title>
    <desc>Created with Sketch.</desc>
    <g id="03---Long-Running-Branches-1" stroke="none" stroke-width="1" fill="none" fill-rule="evenodd">
        <g id="brown" transform="translate(-2.000000, 70.000000)">
            <rect id="Rectangle-1" fill="#EFEFE7" fill-rule="evenodd" x="0" y="0" width="89" height="33" rx="16.5"/>
            <text stroke="none" font-family="Source Code Pro" font-size="12px" font-weight="700" fill="#979797" fill-opacity="1" text-anchor="middle" id="C6">
                <tspan fill="#808080" x="44.5" y="21" fill-opacity="1">C1</tspan>
            </text>
        </g>
        <path id="Line" d="M96,86 L122,86 L122,87 L96,87 L96,91 L87,86.5 L96,82 L96,86 Z" fill="#8F8981" fill-rule="nonzero"/>
        <g id="brown" transform="translate(116.000000, 70.000000)">
            <rect id="Rectangle-1" fill="#EFEFE7" fill-rule="evenodd" x="0" y="0" width="89" height="33" rx="16.5"/>
            <text stroke="none" font-family="Source Code Pro" font-size="12px" font-weight="700" fill="#979797" fill-opacity="1" text-anchor="middle" id="C6">
                <tspan fill="#808080" x="44.5" y="21" fill-opacity="1">C2</tspan>
            </text>
        </g>
        <path id="Line" d="M214,86 L240,86 L240,87 L214,87 L214,91 L205,86.5 L214,82 L214,86 Z" fill="#8F8981" fill-rule="nonzero"/>
        <g id="brown" transform="translate(234.000000, 70.000000)">
            <rect id="Rectangle-1" fill="#EFEFE7" fill-rule="evenodd" x="0" y="0" width="89" height="33" rx="16.5"/>
            <text stroke="none" font-family="Source Code Pro" font-size="12px" font-weight="700" fill="#979797" fill-opacity="1" text-anchor="middle" id="C6">
                <tspan fill="#808080" x="44.5" y="21" fill-opacity="1">C3</tspan>
            </text>
        </g>
        <path id="Line" d="M332,86 L358,86 L358,87 L332,87 L332,91 L323,86.5 L332,82 L332,86 Z" fill="#8F8981" fill-rule="nonzero"/>
        <g id="brown" transform="translate(352.000000, 70.000000)">
            <rect id="Rectangle-1" fill="#EFEFE7" fill-rule="evenodd" x="0" y="0" width="89" height="33" rx="16.5"/>
            <text stroke="none" font-family="Source Code Pro" font-size="12px" font-weight="700" fill="#979797" fill-opacity="1" text-anchor="middle" id="C6">
                <tspan fill="#808080" x="44.5" y="21" fill-opacity="1">C4</tspan>
            </text>
        </g>
        <path id="Line" d="M450,86 L476,86 L476,87 L450,87 L450,91 L441,86.5 L450,82 L450,86 Z" fill="#8F8981" fill-rule="nonzero"/>
        <g id="brown" transform="translate(470.000000, 70.000000)">
            <rect id="Rectangle-1" fill="#EFEFE7" fill-rule="evenodd" x="0" y="0" width="89" height="33" rx="16.5"/>
            <text stroke="none" font-family="Source Code Pro" font-size="12px" font-weight="700" fill="#979797" fill-opacity="1" text-anchor="middle" id="C6">
                <tspan fill="#808080" x="44.5" y="21" fill-opacity="1">C5</tspan>
            </text>
        </g>
        <path id="Line" d="M568,86 L594,86 L594,87 L568,87 L568,91 L559,86.5 L568,82 L568,86 Z" fill="#8F8981" fill-rule="nonzero"/>
        <g id="brown" transform="translate(588.000000, 70.000000)">
            <rect id="Rectangle-1" fill="#EFEFE7" fill-rule="evenodd" x="0" y="0" width="89" height="33" rx="16.5"/>
            <text stroke="none" font-family="Source Code Pro" font-size="12px" font-weight="700" fill="#979797" fill-opacity="1" text-anchor="middle" id="C6">
                <tspan fill="#808080" x="44.5" y="21" fill-opacity="1">C6</tspan>
            </text>
        </g>
        <path id="Line" d="M686,86 L712,86 L712,87 L686,87 L686,91 L677,86.5 L686,82 L686,86 Z" fill="#8F8981" fill-rule="nonzero"/>
        <g id="brown" transform="translate(706.000000, 70.000000)">
            <rect id="Rectangle-1" fill="#EFEFE7" fill-rule="evenodd" x="0" y="0" width="89" height="33" rx="16.5"/>
            <text stroke="none" font-family="Source Code Pro" font-size="12px" font-weight="700" fill="#979797" fill-opacity="1" text-anchor="middle" id="C6">
                <tspan fill="#808080" x="44.5" y="21" fill-opacity="1">C7</tspan>
            </text>
        </g>
        <path id="Line-2" d="M43,61 L43,23 L44,23 L44,61 L48,61 L43.5,70 L39,61 L43,61 Z" fill="#8F8981" fill-rule="nonzero"/>
        <g id="ref">
            <rect id="Rectangle-2" fill="#F44D27" fill-rule="evenodd" x="0" y="0" width="106" height="33"/>
            <text stroke="none" font-family="Source Code Pro" font-size="12px" font-weight="700" fill="#979797" fill-opacity="1" text-anchor="middle" id="master">
                <tspan fill="#f0f0f0" x="53" y="20" fill-opacity="1">master</tspan>
            </text>
        </g>
        <path id="Line-2" d="M516,61 L516,23 L517,23 L517,61 L521,61 L516.5,70 L512,61 L516,61 Z" fill="#8F8981" fill-rule="nonzero"/>
        <g id="ref" transform="translate(473.000000, 0.000000)">
            <rect id="Rectangle-2" fill="#F44D27" fill-rule="evenodd" x="0" y="0" width="106" height="33"/>
            <text stroke="none" font-family="Source Code Pro" font-size="12px" font-weight="700" fill="#979797" fill-opacity="1" text-anchor="middle" id="master">
                <tspan fill="#f0f0f0" x="53" y="20" fill-opacity="1">develop</tspan>
            </text>
        </g>
        <path id="Line-2" d="M751,61 L751,23 L752,23 L752,61 L756,61 L751.5,70 L747,61 L751,61 Z" fill="#8F8981" fill-rule="nonzero"/>
        <g id="ref" transform="translate(708.000000, 0.000000)">
            <rect id="Rectangle-2" fill="#F44D27" fill-rule="evenodd" x="0" y="0" width="106" height="33"/>
            <text stroke="none" font-family="Source Code Pro" font-size="12px" font-weight="700" fill="#979797" fill-opacity="1" text-anchor="middle" id="master">
                <tspan fill="#f0f0f0" x="53" y="20" fill-opacity="1">topic</tspan>
            </text>
        </g>
    </g>
</svg>
